modules/hawcons-stroke/icons/icon-108-folder-bookmark.svg

<?xml version="1.0" encoding="UTF-8" standalone="no"?>
<svg width="32px" height="32px" viewBox="0 0 32 32" version="1.1" xmlns="http://www.w3.org/2000/svg" xmlns:xlink="http://www.w3.org/1999/xlink" xmlns:sketch="http://www.bohemiancoding.com/sketch/ns">
    <!-- Generator: Sketch 3.0.3 (7891) - http://www.bohemiancoding.com/sketch -->
    <title>icon 108 folder bookmark</title>
    <desc>Created with Sketch.</desc>
    <defs></defs>
    <g id="Page-1" stroke="none" stroke-width="1" fill="none" fill-rule="evenodd" sketch:type="MSPage">
        <g id="icon-108-folder-bookmark" sketch:type="MSArtboardGroup" fill="#929292">
            <path d="M24,14 L30,14 L30,24.9991283 C30,25.5553691 29.5554342,26 29.0070346,26 L3.99296544,26 C3.44610862,26 3,25.5559546 3,25.0081969 L3,14 L18,14 L18,23 L21,20 L24,23 L24,14 L24,14 L24,14 Z M3,13 L3,6.99180311 C3,6.45530558 3.44401481,6 3.99173483,6 L14.4000244,6 L16.3599854,10 L28.9970172,10 C29.5461723,10 30,10.4481055 30,11.0008717 L30,13 L3,13 L3,13 Z M17,9 L15,5 L4.00276013,5 C2.89666625,5 2,5.88967395 2,6.991155 L2,25.008845 C2,26.1085295 2.89971268,27 3.99328744,27 L29.0067126,27 C30.1075748,27 31,26.1073772 31,25.0049107 L31,10.9950893 C31,9.8932319 30.1029399,9 28.9941413,9 L17,9 L17,9 Z M19,14 L19,20.5999756 L21,18.5999756 L23,20.5999756 L23,14 L19,14 L19,14 Z" id="folder-bookmark" sketch:type="MSShapeGroup"></path>
        </g>
    </g>
</svg>

<svg width="32" height="32" xmlns="http://www.w3.org/2000/svg"><path d="M24 14h6v11c0 .555-.445 1-.993 1H3.993A.993.993 0 0 1 3 25.008V14h15v9l3-3 3 3v-9zM3 13V6.992A1 1 0 0 1 3.992 6H14.4l1.96 4h12.637c.55 0 1.003.448 1.003 1v2H3zm14-4l-2-4H4.003C2.897 5 2 5.89 2 6.991V25.01C2 26.109 2.9 27 3.993 27h25.014c1.1 0 1.993-.893 1.993-1.995v-14.01A2 2 0 0 0 28.994 9H17zm2 5v6.6l2-2 2 2V14h-4z" fill="#929292" fill-rule="evenodd"/></svg>
